HomeWorks/home 9/svg/domik.svg

<?xml version="1.0" encoding="utf-8"?>
<!-- Generator: Adobe Illustrator 24.3.0, SVG Export Plug-In . SVG Version: 6.00 Build 0)  -->
<svg version="1.1" id="Слой_1" xmlns="http://www.w3.org/2000/svg" xmlns:xlink="http://www.w3.org/1999/xlink" x="0px" y="0px"
	 viewBox="0 0 283.46 283.46" style="enable-background:new 0 0 283.46 283.46;" xml:space="preserve">
<style type="text/css">
	.st0{fill:#696969;}
	.st1{fill:#AECDB6;}
	.st2{fill:#FFFFFF;}
	.st3{fill:none;stroke:#AA9B9B;stroke-width:8;stroke-miterlimit:10;}
</style>
<g>
	<path d="M53.29,165.64c-6.03,0-11.85,0-17.77,0c-0.27-2.54-0.35-4.56,2-6.58c9.6-8.28,18.91-16.84,28.41-25.23
		c1.26-1.11,1.68-2.21,1.67-3.72c-0.04-18.62-0.03-37.23-0.03-55.85c0-0.65,0-1.29,0-2.07c15.24,0,30.34,0,45.62,0
		c0,6.28,0,12.53,0,19.24c0.79-0.69,1.25-1.07,1.7-1.47c7.62-6.82,15.25-13.65,22.87-20.47c1.67-1.49,3.51-1.52,5.18-0.07
		c34.62,30.23,69.23,60.47,103.88,90.68c1.94,1.69,0.57,3.57,1.26,5.49c-6.28,0-12.23,0-18.35,0c0,33.15,0,66.15,0,99.29
		c-58.86,0-117.53,0-176.43,0C53.29,231.88,53.29,198.84,53.29,165.64z M48.39,159.11c62.02,0,124.39,0,187.1,0
		c-31.82-27.8-63.41-55.39-95.17-83.14C109.52,103.83,78.89,131.53,48.39,159.11z M60.42,165.71c0,31.01,0,61.92,0,92.89
		c27.48,0,54.83,0,82.34,0c0-27.65,0-55.19,0-82.82c20.88,0,41.58,0,62.45,0c0,27.66,0,55.2,0,82.78c5.83,0,11.5,0,17.22,0
		c0-31.01,0-61.89,0-92.85C168.39,165.71,114.45,165.71,60.42,165.71z M198.04,182.16c-16.07,0-32.03,0-48.05,0
		c0,25.19,0,50.3,0,75.36c16.13,0,32.09,0,48.05,0C198.04,232.32,198.04,207.29,198.04,182.16z M74.79,125.64
		c0.37-0.2,0.54-0.26,0.66-0.36c10-8.94,20-17.87,29.96-26.84c0.48-0.43,0.74-1.23,0.75-1.87c0.07-4.04,0.03-8.08,0.03-12.12
		c0-1.95,0-3.89,0-5.91c-10.58,0-20.95,0-31.4,0C74.79,94.24,74.79,109.83,74.79,125.64z"/>
	<path class="st0" d="M48.39,159.11c30.5-27.58,61.13-55.28,91.93-83.14c31.77,27.75,63.35,55.34,95.17,83.14
		C172.78,159.11,110.41,159.11,48.39,159.11z"/>
	<path class="st1" d="M60.42,165.71c54.03,0,107.96,0,162.01,0c0,30.97,0,61.84,0,92.85c-5.72,0-11.39,0-17.22,0
		c0-27.58,0-55.13,0-82.78c-20.87,0-41.57,0-62.45,0c0,27.63,0,55.17,0,82.82c-27.52,0-54.86,0-82.34,0
		C60.42,227.63,60.42,196.72,60.42,165.71z M75.33,185.14c0,15.28,0,30.42,0,45.6c17.01,0,33.89,0,50.81,0c0-15.26,0-30.4,0-45.6
		C109.17,185.14,92.33,185.14,75.33,185.14z"/>
	<path class="st2" d="M198.04,182.16c0,25.13,0,50.16,0,75.36c-15.96,0-31.92,0-48.05,0c0-25.06,0-50.17,0-75.36
		C166,182.16,181.97,182.16,198.04,182.16z"/>
	<path class="st2" d="M74.79,125.64c0-15.81,0-31.4,0-47.11c10.46,0,20.82,0,31.4,0c0,2.02,0,3.97,0,5.91
		c0,4.04,0.03,8.08-0.03,12.12c-0.01,0.63-0.27,1.44-0.75,1.87c-9.96,8.97-19.96,17.91-29.96,26.84
		C75.33,125.38,75.16,125.43,74.79,125.64z"/>
	<path d="M75.33,185.14c17,0,33.84,0,50.81,0c0,15.2,0,30.34,0,45.6c-16.92,0-33.8,0-50.81,0
		C75.33,215.57,75.33,200.42,75.33,185.14z M97.72,224.39c0-4.69,0-9.2,0-13.72c-5.16,0-10.22,0-15.31,0c0,4.64,0,9.14,0,13.72
		C87.55,224.39,92.57,224.39,97.72,224.39z M82.37,204.02c5.22,0,10.28,0,15.34,0c0-4.23,0-8.34,0-12.48c-5.16,0-10.21,0-15.34,0
		C82.37,195.74,82.37,199.81,82.37,204.02z M104.96,224.37c4.79,0,9.39,0,14.05,0c0-4.63,0-9.17,0-13.74c-4.75,0-9.35,0-14.05,0
		C104.96,215.23,104.96,219.73,104.96,224.37z M104.98,191.41c0,4.39,0,8.5,0,12.61c4.77,0,9.42,0,14.18,0
		c0-3.93,0.03-7.74-0.04-11.54c-0.01-0.36-0.6-1.01-0.93-1.02C113.83,191.39,109.47,191.41,104.98,191.41z"/>
	<path class="st2" d="M97.72,224.39c-5.15,0-10.17,0-15.31,0c0-4.58,0-9.08,0-13.72c5.09,0,10.15,0,15.31,0
		C97.72,215.2,97.72,219.7,97.72,224.39z"/>
	<path class="st2" d="M82.37,204.02c0-4.21,0-8.28,0-12.48c5.13,0,10.18,0,15.34,0c0,4.14,0,8.24,0,12.48
		C92.65,204.02,87.59,204.02,82.37,204.02z"/>
	<path class="st2" d="M104.96,224.37c0-4.64,0-9.15,0-13.74c4.71,0,9.3,0,14.05,0c0,4.57,0,9.11,0,13.74
		C114.34,224.37,109.74,224.37,104.96,224.37z"/>
	<path class="st2" d="M104.98,191.41c4.49,0,8.85-0.02,13.21,0.05c0.33,0.01,0.92,0.66,0.93,1.02c0.07,3.81,0.04,7.61,0.04,11.54
		c-4.76,0-9.41,0-14.18,0C104.98,199.91,104.98,195.8,104.98,191.41z"/>
</g>
<path class="st3" d="M71.91,71.52c-15.83-12.78-15.6-33.21,0.53-45.63c12.9-9.94,33.62-9.71,46.29,0.51
	c10.13,8.18,9.98,21.25-0.34,29.21c-8.26,6.36-21.52,6.22-29.62-0.33c-6.48-5.23-6.39-13.6,0.22-18.69
	c5.28-4.07,13.77-3.98,18.96,0.21c4.15,3.35,4.09,8.71-0.14,11.96c-3.38,2.61-8.81,2.55-12.13-0.13c-2.66-2.14-2.62-5.57,0.09-7.66
	c2.16-1.67,5.64-1.63,7.77,0.09"/>
</svg>

<svg id="Слой_1" data-name="Слой 1" xmlns="http://www.w3.org/2000/svg" width="75.03mm" height="88.3mm" viewBox="0 0 212.69 250.3">
  <defs>
    <style>
      .cls-1 {
        fill: #696969;
      }

      .cls-2 {
        fill: #aecdb6;
      }

      .cls-3 {
        fill: #fff;
      }

      .cls-4 {
        fill: none;
        stroke: #aa9b9b;
        stroke-miterlimit: 10;
        stroke-width: 8px;
      }
    </style>
  </defs>
  <g>
    <path d="M53.29,165.64H35.52c-.27-2.54-.35-4.56,2-6.58,9.6-8.28,18.91-16.84,28.41-25.22a4.44,4.44,0,0,0,1.67-3.72q-.06-27.93,0-55.85V72.2h45.61V91.44c.8-.69,1.26-1.07,1.7-1.47L137.76,69.5a3.59,3.59,0,0,1,5.18-.07q51.93,45.34,103.88,90.68c1.94,1.69.57,3.57,1.26,5.48H229.72v99.29H53.29Zm-4.9-6.53h187.1L140.32,76Zm12,6.6V258.6h82.34V175.78h62.45v82.78h17.22V165.71ZM198,182.16H150v75.36h48ZM74.79,125.64a5.07,5.07,0,0,0,.66-.37q15-13.39,30-26.84a2.8,2.8,0,0,0,.76-1.87c.06-4,0-8.08,0-12.12V78.53H74.79Z" transform="translate(-35.39 -14.58)"/>
    <path class="cls-1" d="M48.39,159.11,140.32,76l95.17,83.14Z" transform="translate(-35.39 -14.58)"/>
    <path class="cls-2" d="M60.42,165.71h162v92.85H205.21V175.78H142.76V258.6H60.42Zm14.91,19.43v45.6h50.81v-45.6Z" transform="translate(-35.39 -14.58)"/>
    <path class="cls-3" d="M198,182.16v75.36H150V182.16Z" transform="translate(-35.39 -14.58)"/>
    <path class="cls-3" d="M74.79,125.64V78.53h31.4v5.91c0,4,0,8.08,0,12.12a2.8,2.8,0,0,1-.76,1.87q-14.93,13.45-29.95,26.84A5.07,5.07,0,0,1,74.79,125.64Z" transform="translate(-35.39 -14.58)"/>
    <path d="M75.33,185.14h50.81v45.6H75.33Zm22.39,39.25V210.67H82.4v13.72ZM82.37,204H97.71V191.54H82.37ZM105,224.37H119V210.63H105Zm0-33V204h14.18c0-3.93,0-7.74,0-11.55,0-.35-.6-1-.94-1C113.83,191.39,109.47,191.41,105,191.41Z" transform="translate(-35.39 -14.58)"/>
    <path class="cls-3" d="M97.72,224.39H82.4V210.67H97.72Z" transform="translate(-35.39 -14.58)"/>
    <path class="cls-3" d="M82.37,204V191.54H97.71V204Z" transform="translate(-35.39 -14.58)"/>
    <path class="cls-3" d="M105,224.37V210.63H119v13.74Z" transform="translate(-35.39 -14.58)"/>
    <path class="cls-3" d="M105,191.41c4.49,0,8.85,0,13.2.05.34,0,.93.66.94,1,.06,3.81,0,7.62,0,11.55H105Z" transform="translate(-35.39 -14.58)"/>
  </g>
  <path class="cls-4" d="M71.91,71.52c-15.83-12.77-15.59-33.21.53-45.63,12.9-9.94,33.62-9.71,46.29.51,10.13,8.18,10,21.25-.34,29.2-8.25,6.37-21.52,6.22-29.62-.32C82.28,50,82.38,41.68,89,36.59a16.06,16.06,0,0,1,19,.21c4.15,3.35,4.09,8.7-.13,12a10.29,10.29,0,0,1-12.14-.14A4.64,4.64,0,0,1,95.76,41a6.59,6.59,0,0,1,7.77.08" transform="translate(-35.39 -14.58)"/>
</svg>
